X: 31
T:Ladies' Pleasure, Bledington
M:6/8
L:1/8
A:Bledington
P:AAB(CB)2
K:F
P:A
|:c|f2f  A2B|c2A  F2C|F>FF GAB|1A2G G2:|2A2G F3||
P:B
G>GG BAB|G>GG BAB|G>AB cde| fed c2c|
f2f  A2B|c2A  F2C|F>FF GAB| A2G F3 ||
P:C
M:3/8 
L:1/8
|:c3|\
M:6/8
f3f3|A3B3|c3A3|\
M:3/8 
L:1/8
F2C|
M:6/8
F>FF GAB|1A2G G3:|2A2G F3||
